img/enterprises/brand1.svg

<svg width="210" height="79" viewBox="0 0 210 79" fill="none" xmlns="http://www.w3.org/2000/svg">
<g id="62fbcc4e6f486717da802261_Luminous%20Logo.svg">
<path id="Vector" d="M29.6956 28.03C31.8498 26.0681 34.7749 24.923 37.7395 24.7805C38.7542 24.7805 39.7719 24.7863 40.7865 24.7776C40.7347 25.8153 40.7865 26.8557 40.756 27.8934C40.6128 30.2128 39.7139 32.4798 38.1996 34.2993C36.2313 36.7466 33.221 38.3887 30.0247 38.8131C28.6292 39.0281 27.2123 38.8915 25.8077 38.9293C25.8321 37.787 25.7559 36.642 25.8504 35.5026C26.1246 32.6775 27.5232 29.9715 29.6956 28.03Z" fill="#81818B"/>
<path id="Vector_2" d="M41.7261 24.7776C42.8139 24.7892 43.9016 24.7718 44.9924 24.7834C47.7072 24.9665 50.3855 25.9605 52.4298 27.6841C54.6845 29.5297 56.2296 32.1689 56.6255 34.9882C56.7992 36.296 56.6895 37.6185 56.7567 38.9322C55.8059 38.9293 54.8583 38.9264 53.9075 38.9322C51.5708 38.8712 49.2734 38.1504 47.3172 36.9355C46.4153 36.3193 45.489 35.6944 44.8126 34.8399C43.3288 33.2588 42.3203 31.2736 41.9394 29.181C41.6529 27.7277 41.7687 26.2454 41.7261 24.7776Z" fill="#81818B"/>
<path id="Vector_3" d="M25.8098 39.7634C26.7757 39.8157 27.7446 39.7197 28.7074 39.8215C32.8299 39.9057 36.8306 42.1147 38.9664 45.4775C40.1914 47.3609 40.8495 49.5933 40.7642 51.8106C40.7611 52.5378 40.7733 53.2612 40.752 53.9852C39.2224 53.9411 37.6776 54.0603 36.1633 53.7783C32.7995 53.2381 29.7069 51.3282 27.8451 48.602C26.4344 46.6198 25.7306 44.1987 25.8037 41.8066C25.8037 41.1235 25.8037 40.4435 25.8098 39.7634Z" fill="#81818B"/>
<path id="Vector_4" d="M51.6084 40.0714C53.266 39.7196 54.9748 39.7778 56.6601 39.7778L56.7336 39.8476C56.6968 41.3677 56.8218 42.9052 56.5021 44.4078C55.8285 47.7794 53.4886 50.7903 50.3409 52.4441C48.3817 53.4849 46.1331 53.9963 43.8936 53.9732C43.1776 53.9763 42.4585 53.9616 41.7425 53.9816C41.7425 52.7232 41.6876 51.4592 41.8369 50.2061C42.1843 47.1748 43.9028 44.3526 46.3738 42.446C47.9034 41.295 49.7011 40.4608 51.6084 40.0714Z" fill="#81818B"/>
<path id="Vector_5" d="M69.2417 48.3554C69.2417 48.8672 69.0559 49.3 68.6852 49.6543C68.334 49.989 67.8904 50.1563 67.3544 50.1563C66.8383 50.1563 66.4052 49.989 66.0545 49.6543C65.7038 49.3 65.5284 48.8672 65.5284 48.3554V30.1118C65.5284 29.6001 65.7038 29.177 66.0545 28.8425C66.4256 28.4882 66.8798 28.3111 67.4163 28.3111C67.9523 28.3111 68.3855 28.4882 68.7157 28.8425C69.0664 29.177 69.2417 29.6001 69.2417 30.1118V48.3554Z" fill="#81818B"/>
<path id="Vector_6" d="M84.1475 34.3629C84.6836 34.3629 85.1272 34.5399 85.4784 34.8942C85.8286 35.2287 86.0039 35.6519 86.0039 36.1635V43.6618C86.0039 45.7478 85.3955 47.401 84.1785 48.6212C82.961 49.8414 81.2075 50.4512 78.917 50.4512C76.6274 50.4512 74.8734 49.8414 73.6565 48.6212C72.46 47.401 71.8615 45.7478 71.8615 43.6618V36.1635C71.8615 35.6519 72.0368 35.2287 72.3875 34.8942C72.7382 34.5399 73.1819 34.3629 73.7184 34.3629C74.255 34.3629 74.6981 34.5399 75.0488 34.8942C75.4 35.2287 75.5753 35.6519 75.5753 36.1635V43.6618C75.5753 44.8622 75.8541 45.7577 76.4106 46.3481C76.9676 46.9189 77.8034 47.2041 78.917 47.2041C80.0525 47.2041 80.8978 46.9189 81.4553 46.3481C82.0118 45.7577 82.2906 44.8622 82.2906 43.6618V36.1635C82.2906 35.6519 82.466 35.2287 82.8167 34.8942C83.1674 34.5399 83.611 34.3629 84.1475 34.3629Z" fill="#81818B"/>
<path id="Vector_7" d="M97.1733 34.0676C98.8239 34.0676 100.041 34.4514 100.825 35.2189C101.609 35.9668 102.125 36.9409 102.372 38.1414L101.846 37.8757L102.094 37.4034C102.341 36.9507 102.723 36.4686 103.239 35.9569C103.755 35.4255 104.374 34.9828 105.096 34.6285C105.838 34.2545 106.664 34.0676 107.571 34.0676C109.057 34.0676 110.181 34.3727 110.945 34.9827C111.729 35.5928 112.265 36.4095 112.554 37.4329C112.843 38.4366 112.987 39.5584 112.987 40.7982V48.3554C112.987 48.8672 112.812 49.3 112.461 49.6544C112.11 49.989 111.667 50.1564 111.13 50.1564C110.594 50.1564 110.15 49.989 109.8 49.6544C109.449 49.3 109.274 48.8672 109.274 48.3554V40.7982C109.274 40.1488 109.191 39.5683 109.026 39.0565C108.861 38.5251 108.562 38.102 108.128 37.7871C107.695 37.4723 107.076 37.3148 106.272 37.3148C105.488 37.3148 104.817 37.4723 104.26 37.7871C103.703 38.102 103.28 38.5251 102.991 39.0565C102.723 39.5683 102.589 40.1488 102.589 40.7982V48.3554C102.589 48.8672 102.413 49.3 102.063 49.6544C101.712 49.989 101.268 50.1564 100.732 50.1564C100.196 50.1564 99.7521 49.989 99.4019 49.6544C99.0507 49.3 98.8754 48.8672 98.8754 48.3554V40.7982C98.8754 40.1488 98.7929 39.5683 98.6276 39.0565C98.4627 38.5251 98.1635 38.102 97.7303 37.7871C97.2972 37.4723 96.6777 37.3148 95.8734 37.3148C95.0896 37.3148 94.4192 37.4723 93.8616 37.7871C93.3051 38.102 92.882 38.5251 92.5932 39.0565C92.3249 39.5683 92.1911 40.1488 92.1911 40.7982V48.3554C92.1911 48.8672 92.0157 49.3 91.665 49.6544C91.3138 49.989 90.8707 50.1564 90.3341 50.1564C89.7976 50.1564 89.3545 49.989 89.0033 49.6544C88.6526 49.3 88.4772 48.8672 88.4772 48.3554V36.1635C88.4772 35.6519 88.6526 35.2287 89.0033 34.8942C89.3545 34.5399 89.7976 34.3628 90.3341 34.3628C90.8707 34.3628 91.3138 34.5399 91.665 34.8942C92.0157 35.2287 92.1911 35.6519 92.1911 36.1635V37.4329L91.7264 37.3444C91.9123 37.0098 92.1706 36.6555 92.5003 36.2816C92.8305 35.888 93.2327 35.5239 93.7073 35.1893C94.1819 34.8548 94.7079 34.5891 95.2854 34.3923C95.8634 34.1758 96.4929 34.0676 97.1733 34.0676Z" fill="#81818B"/>
<path id="Vector_8" d="M118.956 48.3555C118.956 48.8672 118.781 49.3 118.429 49.6544C118.079 49.989 117.636 50.1564 117.099 50.1564C116.563 50.1564 116.119 49.989 115.768 49.6544C115.418 49.3 115.243 48.8672 115.243 48.3555V36.1635C115.243 35.6519 115.418 35.2287 115.768 34.8942C116.119 34.5399 116.563 34.3628 117.099 34.3628C117.636 34.3628 118.079 34.5399 118.429 34.8942C118.781 35.2287 118.956 35.6519 118.956 36.1635V48.3555ZM117.068 32.444C116.367 32.444 115.872 32.3358 115.582 32.1193C115.294 31.9028 115.15 31.519 115.15 30.968V30.4071C115.15 29.8364 115.305 29.4526 115.613 29.2558C115.944 29.0393 116.439 28.931 117.099 28.931C117.822 28.931 118.327 29.0393 118.615 29.2558C118.905 29.4723 119.049 29.856 119.049 30.4071V30.968C119.049 31.5387 118.894 31.9323 118.584 32.1488C118.276 32.3456 117.77 32.444 117.068 32.444Z" fill="#81818B"/>
<path id="Vector_9" d="M130.076 34.0676C131.603 34.0676 132.758 34.3727 133.542 34.9827C134.347 35.5928 134.893 36.4095 135.182 37.4329C135.492 38.4366 135.646 39.5584 135.646 40.7982V48.3554C135.646 48.8672 135.471 49.3 135.12 49.6544C134.77 49.989 134.326 50.1564 133.789 50.1564C133.253 50.1564 132.81 49.989 132.459 49.6544C132.108 49.3 131.933 48.8672 131.933 48.3554V40.7982C131.933 40.1488 131.84 39.5683 131.655 39.0565C131.489 38.5251 131.18 38.102 130.726 37.7871C130.272 37.4723 129.622 37.3148 128.776 37.3148C127.951 37.3148 127.25 37.4723 126.672 37.7871C126.115 38.102 125.682 38.5251 125.372 39.0565C125.083 39.5683 124.938 40.1488 124.938 40.7982V48.3554C124.938 48.8672 124.764 49.3 124.413 49.6544C124.062 49.989 123.618 50.1564 123.082 50.1564C122.546 50.1564 122.102 49.989 121.752 49.6544C121.4 49.3 121.225 48.8672 121.225 48.3554V36.1635C121.225 35.6519 121.4 35.2287 121.752 34.8942C122.102 34.5399 122.546 34.3628 123.082 34.3628C123.618 34.3628 124.062 34.5399 124.413 34.8942C124.764 35.2287 124.938 35.6519 124.938 36.1635V37.4329L124.475 37.3444C124.661 37.0098 124.928 36.6555 125.279 36.2816C125.63 35.888 126.043 35.5239 126.517 35.1893C126.992 34.8548 127.528 34.5891 128.126 34.3923C128.725 34.1758 129.375 34.0676 130.076 34.0676Z" fill="#81818B"/>
<path id="Vector_10" d="M154.02 42.2742C154.02 43.888 153.638 45.3149 152.875 46.5547C152.132 47.7749 151.121 48.7294 149.842 49.4181C148.583 50.1072 147.17 50.4512 145.602 50.4512C144.034 50.4512 142.61 50.1072 141.332 49.4181C140.073 48.7294 139.063 47.7749 138.299 46.5547C137.556 45.3149 137.185 43.888 137.185 42.2742C137.185 40.6605 137.556 39.2435 138.299 38.0233C139.063 36.7835 140.073 35.8191 141.332 35.1303C142.61 34.4218 144.034 34.0676 145.602 34.0676C147.17 34.0676 148.583 34.4218 149.842 35.1303C151.121 35.8191 152.132 36.7835 152.875 38.0233C153.638 39.2435 154.02 40.6605 154.02 42.2742ZM150.306 42.2742C150.306 41.2706 150.09 40.4046 149.656 39.6765C149.243 38.9286 148.676 38.3481 147.954 37.9348C147.253 37.5215 146.469 37.3148 145.602 37.3148C144.736 37.3148 143.941 37.5215 143.219 37.9348C142.518 38.3481 141.95 38.9286 141.517 39.6765C141.105 40.4046 140.898 41.2706 140.898 42.2742C140.898 43.2583 141.105 44.1242 141.517 44.8721C141.95 45.6002 142.518 46.1709 143.219 46.5842C143.941 46.9975 144.736 47.2041 145.602 47.2041C146.469 47.2041 147.253 46.9975 147.954 46.5842C148.676 46.1709 149.243 45.6002 149.656 44.8721C150.09 44.1242 150.306 43.2583 150.306 42.2742Z" fill="#81818B"/>
<path id="Vector_11" d="M167.861 34.3629C168.397 34.3629 168.841 34.5399 169.192 34.8942C169.542 35.2287 169.718 35.6519 169.718 36.1635V43.6618C169.718 45.7478 169.109 47.401 167.892 48.6212C166.674 49.8414 164.921 50.4512 162.631 50.4512C160.341 50.4512 158.587 49.8414 157.37 48.6212C156.173 47.401 155.575 45.7478 155.575 43.6618V36.1635C155.575 35.6519 155.75 35.2287 156.101 34.8942C156.452 34.5399 156.895 34.3629 157.432 34.3629C157.968 34.3629 158.412 34.5399 158.763 34.8942C159.113 35.2287 159.289 35.6519 159.289 36.1635V43.6618C159.289 44.8622 159.567 45.7577 160.124 46.3481C160.681 46.9189 161.517 47.2041 162.631 47.2041C163.765 47.2041 164.612 46.9189 165.168 46.3481C165.726 45.7577 166.004 44.8622 166.004 43.6618V36.1635C166.004 35.6519 166.18 35.2287 166.53 34.8942C166.881 34.5399 167.325 34.3629 167.861 34.3629Z" fill="#81818B"/>
<path id="Vector_12" d="M171.231 47.706C171.025 47.4305 170.932 47.0762 170.953 46.6433C170.974 46.2103 171.242 45.8364 171.758 45.5215C172.088 45.3247 172.438 45.246 172.81 45.2854C173.181 45.305 173.542 45.4821 173.893 45.8167C174.492 46.3874 175.121 46.8302 175.781 47.1451C176.441 47.46 177.266 47.6174 178.256 47.6174C178.566 47.5977 178.906 47.5584 179.278 47.4993C179.649 47.4206 179.969 47.2632 180.237 47.027C180.525 46.7712 180.67 46.3874 180.67 45.8757C180.67 45.4428 180.515 45.0983 180.206 44.8425C179.897 44.5867 179.484 44.3702 178.968 44.1931C178.473 44.016 177.916 43.8487 177.297 43.6912C176.657 43.5141 175.997 43.3173 175.316 43.1008C174.656 42.8844 174.047 42.6089 173.49 42.2742C172.934 41.92 172.48 41.4575 172.129 40.8868C171.778 40.3161 171.603 39.5977 171.603 38.7318C171.603 37.7478 171.891 36.9114 172.469 36.2226C173.047 35.5338 173.79 35.0024 174.697 34.6285C175.626 34.2545 176.595 34.0676 177.606 34.0676C178.246 34.0676 178.916 34.1463 179.618 34.3038C180.319 34.4415 180.99 34.6777 181.63 35.0123C182.269 35.3271 182.806 35.7503 183.239 36.2816C183.465 36.5768 183.6 36.931 183.641 37.3444C183.682 37.7576 183.486 38.1315 183.053 38.4661C182.744 38.7023 182.383 38.8105 181.97 38.7908C181.558 38.7515 181.217 38.6138 180.949 38.3776C180.598 37.9446 180.124 37.6002 179.525 37.3444C178.947 37.0885 178.277 36.9606 177.514 36.9606C177.204 36.9606 176.864 37 176.492 37.0787C176.142 37.1377 175.832 37.2854 175.564 37.5215C175.296 37.738 175.162 38.0922 175.162 38.5842C175.162 39.0369 175.316 39.4009 175.626 39.6765C175.935 39.9323 176.348 40.1488 176.864 40.3259C177.4 40.4834 177.968 40.6408 178.566 40.7982C179.185 40.9557 179.814 41.1426 180.454 41.3591C181.094 41.5757 181.681 41.8609 182.218 42.2152C182.754 42.5695 183.187 43.0319 183.517 43.6027C183.848 44.1537 184.013 44.8622 184.013 45.7281C184.013 46.7318 183.703 47.588 183.084 48.2964C182.465 49.0049 181.691 49.546 180.763 49.9201C179.835 50.2745 178.885 50.4512 177.916 50.4512C176.699 50.4512 175.482 50.2548 174.264 49.861C173.047 49.4476 172.036 48.7294 171.231 47.706Z" fill="#81818B"/>
</g>
</svg>

<svg xmlns="http://www.w3.org/2000/svg" width="210" height="79" fill="none"><g fill="#81818B"><path d="M29.696 28.03c2.154-1.962 5.079-3.107 8.043-3.25 1.015 0 2.033.006 3.047-.002-.051 1.037 0 2.078-.03 3.115A11.144 11.144 0 0 1 38.2 34.3c-1.969 2.448-4.979 4.09-8.175 4.514-1.396.215-2.813.078-4.217.116.024-1.142-.052-2.287.042-3.426.275-2.825 1.673-5.532 3.846-7.473ZM41.726 24.778c1.088.011 2.176-.006 3.266.005 2.715.183 5.394 1.177 7.438 2.901 2.255 1.846 3.8 4.485 4.196 7.304.173 1.308.064 2.63.13 3.944-.95-.003-1.898-.006-2.849 0-2.336-.06-4.634-.782-6.59-1.997-.902-.616-1.828-1.24-2.504-2.095a11.278 11.278 0 0 1-2.874-5.659c-.286-1.453-.17-2.936-.213-4.403ZM25.81 39.763c.966.053 1.935-.043 2.897.059 4.123.084 8.124 2.293 10.26 5.655 1.224 1.884 1.883 4.116 1.797 6.334-.003.727.01 1.45-.012 2.174-1.53-.044-3.074.075-4.589-.207-3.363-.54-6.456-2.45-8.318-5.176a11.193 11.193 0 0 1-2.041-6.795c0-.684 0-1.364.006-2.044ZM51.608 40.071c1.658-.351 3.367-.293 5.052-.293l.074.07c-.037 1.52.088 3.057-.232 4.56-.674 3.371-3.013 6.382-6.161 8.036-1.96 1.04-4.208 1.552-6.447 1.53-.716.002-1.435-.012-2.151.008 0-1.259-.055-2.523.094-3.776.347-3.031 2.066-5.853 4.537-7.76a13.122 13.122 0 0 1 5.234-2.375ZM69.242 48.355c0 .512-.186.945-.557 1.3-.351.334-.795.501-1.33.501-.517 0-.95-.167-1.3-.502a1.776 1.776 0 0 1-.527-1.299V30.112c0-.512.176-.935.526-1.27a1.898 1.898 0 0 1 1.362-.53c.536 0 .97.176 1.3.53.35.335.526.758.526 1.27v18.243ZM84.147 34.363c.537 0 .98.177 1.331.531.35.335.526.758.526 1.27v7.498c0 2.086-.609 3.739-1.826 4.96-1.217 1.22-2.97 1.83-5.261 1.83-2.29 0-4.044-.61-5.26-1.83-1.197-1.221-1.795-2.874-1.795-4.96v-7.498c0-.512.175-.935.526-1.27.35-.354.794-.531 1.33-.531.537 0 .98.177 1.33.531.352.335.527.758.527 1.27v7.498c0 1.2.28 2.096.836 2.686.557.57 1.392.856 2.506.856 1.135 0 1.98-.285 2.538-.856.557-.59.836-1.486.836-2.686v-7.498c0-.512.175-.935.526-1.27.35-.354.794-.531 1.33-.531ZM97.173 34.068c1.65 0 2.868.383 3.652 1.15.784.749 1.3 1.723 1.547 2.923l-.526-.265.248-.473c.247-.452.629-.934 1.145-1.446a6.631 6.631 0 0 1 1.857-1.328c.742-.374 1.568-.561 2.475-.561 1.486 0 2.61.305 3.374.915.784.61 1.32 1.427 1.609 2.45.289 1.004.433 2.125.433 3.365v7.557c0 .512-.175.945-.526 1.3-.351.334-.794.501-1.331.501-.536 0-.98-.167-1.33-.502a1.775 1.775 0 0 1-.526-1.299v-7.557c0-.65-.083-1.23-.248-1.742a2.403 2.403 0 0 0-.898-1.269c-.433-.315-1.052-.472-1.856-.472-.784 0-1.455.157-2.012.472-.557.315-.98.738-1.269 1.27-.268.511-.402 1.092-.402 1.741v7.557c0 .512-.176.945-.526 1.3-.351.334-.795.501-1.331.501-.536 0-.98-.167-1.33-.502a1.775 1.775 0 0 1-.527-1.299v-7.557c0-.65-.082-1.23-.247-1.742a2.405 2.405 0 0 0-.898-1.269c-.433-.315-1.052-.472-1.857-.472-.783 0-1.454.157-2.011.472-.557.315-.98.738-1.269 1.27-.268.511-.402 1.092-.402 1.741v7.557c0 .512-.175.945-.526 1.3-.351.334-.794.501-1.33.501-.537 0-.98-.167-1.332-.502a1.776 1.776 0 0 1-.526-1.299V36.164c0-.512.176-.935.526-1.27.352-.354.795-.531 1.331-.531.537 0 .98.177 1.331.531.35.335.526.758.526 1.27v1.269l-.465-.089c.186-.334.445-.688.774-1.062.33-.394.733-.758 1.207-1.093.475-.334 1-.6 1.578-.797a5.342 5.342 0 0 1 1.888-.324ZM118.956 48.355c0 .512-.175.945-.527 1.3-.35.334-.793.501-1.33.501-.536 0-.98-.167-1.331-.502a1.778 1.778 0 0 1-.525-1.299V36.164c0-.512.175-.935.525-1.27.351-.354.795-.531 1.331-.531.537 0 .98.177 1.33.531.352.335.527.758.527 1.27v12.191Zm-1.888-15.911c-.701 0-1.196-.108-1.486-.325-.288-.216-.432-.6-.432-1.151v-.56c0-.572.155-.955.463-1.152.331-.217.826-.325 1.486-.325.723 0 1.228.108 1.516.325.29.216.434.6.434 1.151v.561c0 .57-.155.964-.465 1.18-.308.198-.814.296-1.516.296ZM130.076 34.068c1.527 0 2.682.305 3.466.915.805.61 1.351 1.427 1.64 2.45.31 1.004.464 2.125.464 3.365v7.557c0 .512-.175.945-.526 1.3-.35.334-.794.501-1.331.501-.536 0-.979-.167-1.33-.502a1.775 1.775 0 0 1-.526-1.299v-7.557c0-.65-.093-1.23-.278-1.742a2.357 2.357 0 0 0-.929-1.269c-.454-.315-1.104-.472-1.95-.472-.825 0-1.526.157-2.104.472-.557.315-.99.738-1.3 1.27-.289.511-.434 1.092-.434 1.741v7.557c0 .512-.174.945-.525 1.3-.351.334-.795.501-1.331.501-.536 0-.98-.167-1.33-.502a1.772 1.772 0 0 1-.527-1.299V36.164c0-.512.175-.935.527-1.27.35-.354.794-.531 1.33-.531s.98.177 1.331.531c.351.335.525.758.525 1.27v1.269l-.463-.089c.186-.334.453-.688.804-1.062a7.252 7.252 0 0 1 1.238-1.093 6.069 6.069 0 0 1 1.609-.797 5.696 5.696 0 0 1 1.95-.324ZM154.02 42.274c0 1.614-.382 3.04-1.145 4.28a7.828 7.828 0 0 1-3.033 2.864c-1.259.69-2.672 1.033-4.24 1.033s-2.992-.344-4.27-1.033a8.121 8.121 0 0 1-3.033-2.863c-.743-1.24-1.114-2.667-1.114-4.28 0-1.614.371-3.032 1.114-4.252a8.049 8.049 0 0 1 3.033-2.893c1.278-.708 2.702-1.062 4.27-1.062 1.568 0 2.981.354 4.24 1.062a7.763 7.763 0 0 1 3.033 2.893c.763 1.22 1.145 2.637 1.145 4.251Zm-3.714 0c0-1.003-.216-1.87-.65-2.598a4.431 4.431 0 0 0-1.702-1.741c-.701-.413-1.485-.62-2.352-.62-.866 0-1.661.207-2.383.62a4.724 4.724 0 0 0-1.702 1.741c-.412.729-.619 1.595-.619 2.598 0 .984.207 1.85.619 2.598a4.792 4.792 0 0 0 1.702 1.712c.722.413 1.517.62 2.383.62.867 0 1.651-.206 2.352-.62a4.487 4.487 0 0 0 1.702-1.712c.434-.748.65-1.614.65-2.598ZM167.861 34.363c.536 0 .98.177 1.331.531.35.335.526.758.526 1.27v7.498c0 2.086-.609 3.739-1.826 4.96-1.218 1.22-2.971 1.83-5.261 1.83s-4.044-.61-5.261-1.83c-1.197-1.221-1.795-2.874-1.795-4.96v-7.498c0-.512.175-.935.526-1.27.351-.354.794-.531 1.331-.531.536 0 .98.177 1.331.531.35.335.526.758.526 1.27v7.498c0 1.2.278 2.096.835 2.686.557.57 1.393.856 2.507.856 1.134 0 1.981-.285 2.537-.856.558-.59.836-1.486.836-2.686v-7.498c0-.512.176-.935.526-1.27.351-.354.795-.531 1.331-.531ZM171.231 47.706c-.206-.276-.299-.63-.278-1.063.021-.433.289-.807.805-1.121.33-.197.68-.276 1.052-.237.371.02.732.197 1.083.532a7.31 7.31 0 0 0 1.888 1.328c.66.315 1.485.472 2.475.472.31-.02.65-.059 1.022-.118.371-.078.691-.236.959-.472.288-.256.433-.64.433-1.151 0-.433-.155-.778-.464-1.033-.309-.256-.722-.473-1.238-.65a18.605 18.605 0 0 0-1.671-.502c-.64-.177-1.3-.374-1.981-.59a8.939 8.939 0 0 1-1.826-.827 4.282 4.282 0 0 1-1.361-1.387c-.351-.57-.526-1.29-.526-2.155 0-.984.288-1.82.866-2.51.578-.688 1.321-1.22 2.228-1.593a7.715 7.715 0 0 1 2.909-.561c.64 0 1.31.078 2.012.236a7.402 7.402 0 0 1 2.012.708 4.76 4.76 0 0 1 1.609 1.27c.226.295.361.649.402 1.062.041.414-.155.788-.588 1.122a1.6 1.6 0 0 1-1.083.325c-.412-.04-.753-.177-1.021-.413-.351-.433-.825-.778-1.424-1.034-.578-.255-1.248-.383-2.011-.383-.31 0-.65.039-1.022.118-.35.059-.66.206-.928.443-.268.216-.402.57-.402 1.062 0 .453.154.817.464 1.092.309.256.722.473 1.238.65a62.33 62.33 0 0 0 1.702.472 25.57 25.57 0 0 1 1.888.561 7.62 7.62 0 0 1 1.764.856c.536.354.969.817 1.299 1.388.331.55.496 1.26.496 2.125 0 1.004-.31 1.86-.929 2.568-.619.709-1.393 1.25-2.321 1.624a7.922 7.922 0 0 1-2.847.531 11.81 11.81 0 0 1-3.652-.59 6.408 6.408 0 0 1-3.033-2.155Z"/></g></svg>
